!!!COM: Beethoven
!!!OTL: 24 Variationen uber Venni Amore von V. Righini
!!!Variation: Variation 22 b
**function	**harm	**kern	**kern	**kern	**kern
*M2/4	*M2/4	*staff3	*staff4	*staff1	*staff2
*D:	*D:	*clefF4	*clefF4	*clefG2	*clefG2
*tb16	*	*k[f#c#]	*k[f#c#]	*k[f#c#]	*k[f#c#]
*	*	*M2/4	*M2/4	*M2/4	*M2/4
*	*	*D:	*D:	*D:	*D:
=	=	=-	=-	=-	=-
4D	4V	2r	(16AALL	4e 4ee	2r
.	.	.	16A	.	.
.	.	.	16C#	.	.
.	.	.	16AAJJ	.	.
4D	4V7d	.	16GLL	8.eL 8.ee	.
.	.	.	16C#	.	.
.	.	.	16GG	.	.
.	.	.	16GJJ)	16eJk 16ee	.
=	=	=396	=396	=396	=396
4D	4Ib	2r	(16FF#LL	(4a 4aa	2r
.	.	.	16F#	.	.
.	.	.	16AA	.	.
.	.	.	16FF#JJ	.	.
4D	4V7c	.	16ELL	4g 4gg	.
.	.	.	16AA	.	.
.	.	.	16EE	.	.
.	.	.	16EJJ)	.	.
=	=	=397	=397	=397	=397
4D	4CTo7/V	2r	(16DD#LL	4f# 4ff#	2r
.	.	.	16D#	.	.
.	.	.	16AA	.	.
.	.	.	16DD#JJ	.	.
4D	4V7c	.	16ELL	4g) 4gg	.
.	.	.	16AA	.	.
.	.	.	16EE	.	.
.	.	.	16EJJ)	.	.
=	=	=398	=398	=398	=398
4D	4Vb	2r	(16CC#LL	8.aL 8.aa	2r
.	.	.	16C#	.	.
.	.	.	16AA	.	.
.	.	.	16CC#JJ	16gJk 16gg	.
4D	4I	.	16DLL	4f# 4ff#	.
.	.	.	16AA	.	.
.	.	.	16DD	.	.
.	.	.	16DJJ)	.	.
=	=	=399	=399	=399	=399
4D	4V	2r	(16AALL	4e 4ee	2r
.	.	.	16A	.	.
.	.	.	16C#	.	.
.	.	.	16AAJJ	.	.
4D	4V2	.	16GLL	8.eL 8.ee	.
.	.	.	16C#	.	.
.	.	.	16GG	.	.
.	.	.	16GJJ)	16eJk 16ee	.
=	=	=400	=400	=400	=400
4D	4Ib	2r	(16FF#LL	(4a 4aa	2r
.	.	.	16F#	.	.
.	.	.	16AA	.	.
.	.	.	16FF#JJ	.	.
4D	4Cto7/V	.	16D#LL	4f# 4ff#	.
.	.	.	16AA	.	.
.	.	.	16DD#	.	.
.	.	.	16D#JJ)	.	.
=	=	=401	=401	=401	=401
2D	2V7	2r	(16EELL	4g) 4gg	2r
.	.	.	16E	.	.
.	.	.	16AA	.	.
.	.	.	16EEJJ	.	.
.	.	.	16GLL	8.cc#L 8.ccc#	.
.	.	.	16E	.	.
.	.	.	16AA	.	.
.	.	.	16GJJ)	16cc#Jk 16ccc#	.
=	=	=402	=402	=402	=402
2T	2I	2r	(16F#LL	4dd 4ddd	2r
.	.	.	16D	.	.
.	.	.	16AA	.	.
.	.	.	16FF#JJ)	.	.
.	.	.	8DD	4r	.
.	.	.	8r	.	.
=	=	=403:|!	=403:|!	=403:|!	=403:|!
*-	*-	*-	*-	*-	*-
